!!!COM: Anon.
!!!OCL: Francis James Child
!!!OPR: The English and Scottish Popular Ballads
!!!OVM: Vol. 1
!!!ONB: Ballad No. 3, Tune No. 2
!!!ONM: No. 3
!!!PDT: 1882
!!!YEM: Public domain.
**kern
*M2/4
{4c#
=1
4g
8.g
16a
=2
*M3/4
8.g
16g
8.c#
16d
4g
=3
*M2/4
4g}
!! Second phrase:
{8.g
16g
=4
4g
8.g
16a
=5
*M3/4
2g}
!! Third phrase:
{4g
=6
*M2/4
8a
8a
4a
=7
4a
8.g
16a
=8
8.b
16b
8.b
16b
=9
[4b
8.b]}
!! Fourth phrase:
{16e
=10
4d
4g
=11
4g
8.g
16g
=12
2g}
====
*-
!!!OCY: Britain; England
!!!PPP: Boston
!!!ODT: <1882
!!!AFR: folk song
!!!AST: monophony
!!!AMT: irregular
!!!SCA: Child Collection
!!!AIN: vox
!!!EEV: 1.0
!!!RDT: 1987 June
!!!YER: 1994 August 10
!!!VTS: 652652838
